dist/assets/images/icons/otr/ico-slide-4.svg

<svg width="53" height="53" viewBox="0 0 53 53" fill="none" xmlns="http://www.w3.org/2000/svg">
<circle cx="26.5" cy="26.5" r="26.5" fill="white"/>
<path d="M15.1392 21.1409C18.1179 17.2685 21.5801 19.549 26.4656 19.5228C31.56 19.4956 35.8144 17.0652 38.8709 21.1409C43.7245 27.6131 40.4887 42.7151 27.0049 42.7151C14.0601 42.7151 9.74581 28.1525 15.1392 21.1409Z" stroke="#DF0112" stroke-width="1.5"/>
<path d="M25.9265 11.4326C21.0724 8.19643 17.2969 9.81451 17.2969 9.81451C17.2969 9.81451 18.3821 13.9145 20.533 15.7474C22.7135 17.6056 27.0052 17.3654 27.0052 17.3654C27.0052 17.3654 28.0943 12.8778 25.9265 11.4326Z" stroke="#0000FF" stroke-width="1.5"/>
</svg>

<svg width="53" height="53" fill="none" xmlns="http://www.w3.org/2000/svg"><circle cx="26.5" cy="26.5" r="26.5" fill="#fff"/><path d="M15.14 21.14c2.978-3.872 6.44-1.591 11.326-1.617 5.094-.027 9.348-2.458 12.405 1.618 4.853 6.472 1.618 21.574-11.866 21.574-12.945 0-17.26-14.563-11.866-21.574z" stroke="#DF0112" stroke-width="1.5"/><path d="M25.927 11.433c-4.855-3.237-8.63-1.618-8.63-1.618s1.085 4.1 3.236 5.932c2.18 1.859 6.472 1.618 6.472 1.618s1.09-4.487-1.078-5.932z" stroke="#00F" stroke-width="1.5"/></svg>
